X:468030
T:The Royal Scottish Country Dance Society
C:William Clement (Aug 1967)
H:
B: 
O:Arranged by Kevin Fraser
Z:Kevin Fraser
Q:3/8=120
M:6/8
L:1/8
K:HP
R:Jig
U: R = ///
U: r = //
U: V = !accent!
U:z="@ "
V:M gstem=up stem=down name="Melody" sname="Melody"
V:H gstem=up stem=down name="Harmony" sname="Harmony"
V:C gstem=up stem=down name="C-Harmony" sname=C-Harmony"
V:S gstem=up stem=down dyn=up stafflines=1 clef=perc middle=G name="Snare" sname="Snare" sname="Snare"
V:B gstem=up stem=down clef=none dyn=up name="Bass" sname="Bass"
V:T gstem=up stem=down clef=none dyn=up name="Tenor" sname="Tenor"
V:BB gstem=up stem=down name="Brass Bass" sname="ABCD-C" transpose=-1  octave=-1 clef=bass
V:BC gstem=up stem=down name="Brass Chord" sname="ABCD-D" transpose=-1
V:BD gstem=up stem=down name="Brass Chord 2" sname="ABCD-B" transpose=-1
V:P gstem=up stem=down name="Piano" octave=-1
I:MIDI=program 110
%%MIDI gracedivider 84
%%MIDI gchord
%%MIDI beatstring 
%%MIDI program 109 #bagpipes
%%MIDI vol 100
[V:M]
%%EPipes[SP=20,LP=225,MA=Y]
K: D
   A \
| "D"f>ga     f>ed |  "G"B<GB "Em"g3 | "A"A>ce e>cA |  A>ce "D"f3 \
| "D"f>ga     f>ed |  "G"B<GB "Em"g3 | "A"A>ce a>ec | "D"d3    d2 :|
|: A \
| "D"f>ed     d>cB |  "G"B<GB     B3 | "A"A>cc c>BA |  A>ce "D"f3 \
| "D"f>ed     d>cB |  "G"B<GB     B3 | "A"A>ce a>ec | "D"d3    d2 :|
|: A \
| "D"f>ga "Bm"d>cB | "Em"e>fg  "A"c3 | "A"A>ce e>cA |  A>ce "D"f3 \
| "D"f>ga "Bm"d>cB | "Em"e>fg  "A"c3 | "A"A>ce a>ec | "D"d3    d2 :|
|: A \
| "D"d>ed     d>cB |  "G"B<GB "Em"B3 | "A"A>cc c>BA |  A>ce "D"f3 \
| "D"d>ed     d>cB |  "G"B<GB "Em"B3 | "A"A>ce a>ec | "D"d3    d2 :|
T:RSCDS Jig
   A | "D"{g}f>ga       {fg}f>ed | "G"{g}B<{d}G{e}B      {gf}g3 | "A"{a}A>{d}ce    {gef}e>{g}c{d}A | {g}A>{d}ce "D"{gfg}f3  |
  y4 | "D"{g}f>ga       {fg}f>ed | "G"{g}B<{d}G{e}B      {gf}g3 | "A"{a}A>{d}ce      a>ec          | "D"{Gdc}d3    {gdc}d2 :|
|: A | "D"{gfg}f>ed    {gde}d>cB | "G"{g}B<{d}G{d}B     {gBG}B3 | "A"{g}A>{d}c{A}c {gcd}c>{g}B{d}A | {g}A>{d}ce "D"{gfg}f3  |
  y4 | "D"{gfg}f>ed    {gde}d>cB | "G"{g}B<{d}G{d}B "Em"{gBG}B3 | "A"{a}A>{d}ce      a>ec          | "D"{Gdc}d3    {gdc}d2 :|
|: A | "D"{g}f>ga  "Bm"{Gdc}d>cB |"Em"{g}e>fg         "A"{cd}c3 | "A"{a}A>{d}ce    {gef}e>{g}c{d}A | {g}A>{d}ce "D"{gfg}f3  |
  y4 | "D"{g}f>ga  "Bm"{Gdc}d>cB |"Em"{g}e>fg         "A"{cd}c3 | "A"{a}A>{d}ce      a>ec          | "D"{Gdc}d3    {gdc}d2 :|
|: A | "D"{Gdc}d>e{g}d {gde}d>cB | "G"{g}B<{d}G{d}B     {gBG}B3 | "A"{g}A>{d}c{A}c {gcd}c>{g}B{d}A | {g}A>{d}ce "D"{gfg}f3  |
  y4 | "D"{Gdc}d>e{g}d {gde}d>cB | "G"{g}B<{d}G{d}B "Em"{gBG}B3 | "A"{a}A>{d}ce      a>ec          | "D"{Gdc}d3    {gdc}d2 :|


